X:150
T: Koenig von Mailand
N: Q1067B
O: Mitteleuropa, Deutschland (BRD) , Rheinland, Bergisches Land
N: Melodievergleich zu Q0067, anderes Lied "Die dienende Schwester" .
R: Ballade
M: 2/4
L: 1/8
K: F
G | c2GG | cBAG | F2GG | F2z
A | G2GG | D2EE | F2ED | C2z
C | F2F2 | G2cc | A2GA | F2z

@@@ Tune index: 1026
